X:1
T:Scotch Mary
M:4/4
O:Trad. (18.2.2016/NS)
L:1/8
K:Emin
GA | "Em" B<EED EFGA | B<EED G3A  | B<EBA (3B^cded | cABG A2   :|
fg |      abag  efed | ^cdef g2fg | abag  eged     | cABG A2fg  |
          abag  efed | ^cdef g2fg | afge  fded     | cABG AF   ||
